Sources/FrostedUI/Resources/Icons.xcassets/wallet12.imageset/wallet-12.svg

<svg width="12" height="12" viewBox="0 0 12 12" fill="none" xmlns="http://www.w3.org/2000/svg" data-fui-icon="true">
  <path
    d="M8.75 1C9.15103 1.00013 9.44182 1.22551 9.60254 1.38672C9.7768 1.56153 9.91379 1.77451 10.0166 1.97168C10.1819 2.28877 10.3207 2.69081 10.3613 3.05078C10.9459 3.33415 11.3496 3.9318 11.3496 4.625V8.625C11.3496 9.59151 10.5661 10.375 9.59961 10.375H2.34961C1.44344 10.375 0.697905 9.68629 0.608398 8.80371L0.599609 8.625V3C0.599609 2.6959 0.703705 2.28163 0.84082 1.95508C0.911952 1.78568 1.01393 1.58733 1.1543 1.41797C1.27738 1.26955 1.5508 1 1.97461 1H8.75ZM2.09961 8.625L2.10449 8.67578C2.12793 8.78954 2.22891 8.875 2.34961 8.875H9.59961C9.73769 8.87499 9.84961 8.76308 9.84961 8.625V4.625C9.84961 4.48693 9.73768 4.37501 9.59961 4.375H2.09961V8.625ZM8.36426 5.50586C8.93173 5.56328 9.375 6.04238 9.375 6.625C9.375 7.2462 8.87115 7.74981 8.25 7.75C7.6676 7.75 7.18859 7.3074 7.13086 6.74023L7.125 6.625L7.13086 6.50977C7.18859 5.9426 7.6676 5.5 8.25 5.5L8.36426 5.50586ZM8.25 6.25C8.04289 6.25 7.875 6.41789 7.875 6.625L7.88184 6.7002C7.91663 6.87131 8.06862 7 8.25 7C8.45695 6.99981 8.625 6.832 8.625 6.625C8.625 6.44378 8.49608 6.29278 8.3252 6.25781L8.25 6.25ZM2.22461 2.53613C2.1856 2.62903 2.152 2.73467 2.12891 2.83203C2.12538 2.84689 2.12297 2.86146 2.12012 2.875H8.77832C8.75106 2.80349 8.72104 2.73125 8.68652 2.66504C8.64866 2.59245 8.61167 2.53866 8.58301 2.5H2.24121C2.23608 2.51131 2.23006 2.52314 2.22461 2.53613Z"
    fill="currentColor"
  />
</svg>

<svg xmlns="http://www.w3.org/2000/svg" width="12" height="12" fill="none" data-fui-icon="true" viewBox="0 0 12 12"><path fill="currentColor" d="M8.75 1c.401 0 .692.226.853.387.174.175.31.388.414.585.165.317.304.719.344 1.079.585.283.989.88.989 1.574v4a1.75 1.75 0 0 1-1.75 1.75H2.35A1.75 1.75 0 0 1 .608 8.804L.6 8.625V3c0-.304.104-.718.24-1.045.072-.17.174-.368.314-.537.123-.148.397-.418.82-.418zM2.1 8.625l.004.05a.25.25 0 0 0 .246.2H9.6a.25.25 0 0 0 .25-.25v-4a.25.25 0 0 0-.25-.25H2.1zm6.264-3.12A1.125 1.125 0 1 1 7.131 6.74l-.006-.115.006-.115A1.125 1.125 0 0 1 8.25 5.5zm-.114.745a.375.375 0 0 0-.375.375l.007.075a.376.376 0 1 0 .443-.442zM2.225 2.536a2 2 0 0 0-.096.296l-.009.043h6.658a2 2 0 0 0-.091-.21 1 1 0 0 0-.104-.165H2.241z"/></svg>
